Yaru++/actions/16/text_superscript.svg

<svg viewBox="0 0 24 24" xmlns="http://www.w3.org/2000/svg">
  <path d="m15 4v2 1 2 1h1 2c1.108 0 2-.892 2-2 0-.8109361-.481273-1.501903-1.171875-1.8164062.105938-.2058541.171875-.4352847.171875-.6835938 0-.831-.669-1.5-1.5-1.5h-1.5zm1 1h1.5c.277 0 .5.223.5.5s-.223.5-.5.5h-1.5zm-6.7832031 1-5.2167969 14h1.6875l1.6679688-4.429688h5.5625002l1.533203 4.429688h1.689453l-4.929687-14zm6.7832031 1h1.5.5c.554 0 1 .446 1 1s-.446 1-1 1h-2zm-5.767578.6113281 2.128906 6.6738279h-4.4882811z" fill="#808080"/>
</svg>

<svg xmlns="http://www.w3.org/2000/svg" viewBox="0 0 24 24">
 <defs>
  <style id="current-color-scheme" type="text/css">
   .ColorScheme-Text { color:#808080; }
  </style>
 </defs>
 <path style="fill:currentColor" class="ColorScheme-Text" d="M 15 4 L 15 6 L 15 7 L 15 9 L 15 10 L 16 10 L 18 10 C 19.108 10 20 9.108 20 8 C 20 7.1890639 19.518727 6.498097 18.828125 6.1835938 C 18.934063 5.9777397 19 5.7483091 19 5.5 C 19 4.669 18.331 4 17.5 4 L 16 4 L 15 4 z M 16 5 L 17.5 5 C 17.777 5 18 5.223 18 5.5 C 18 5.777 17.777 6 17.5 6 L 16 6 L 16 5 z M 9.2167969 6 L 4 20 L 5.6875 20 L 7.3554688 15.570312 L 12.917969 15.570312 L 14.451172 20 L 16.140625 20 L 11.210938 6 L 9.2167969 6 z M 16 7 L 17.5 7 L 18 7 C 18.554 7 19 7.446 19 8 C 19 8.554 18.554 9 18 9 L 16 9 L 16 7 z M 10.232422 7.6113281 L 12.361328 14.285156 L 7.8730469 14.285156 L 10.232422 7.6113281 z"/>
</svg>
